svg/blobs-icons/no-decorations/telescope.svg

<svg xmlns="http://www.w3.org/2000/svg" xmlns:xlink="http://www.w3.org/1999/xlink" preserveAspectRatio="xMidYMid" width="125" height="217" viewBox="0 0 125 217"><defs><style>.cls-3{fill:#ff3a2f}.cls-4{fill:#020403;opacity:.35}.cls-5{fill:#142a3b}.cls-7{fill:#2476ff}.cls-8{fill:#ededed}</style></defs><g id="group-102svg"><path d="M89.501 49.195s-8.077-33.599-8.077-33.599S80.868 9.294 80.868 9.294C77.386 1.871 69.883-.008 61.774-.008c-8.106.0-15.381 1.953-19.098 9.302l-1.081 6.03s-8.077 34.14-8.077 34.14S89.501 49.195 89.501 49.195z" id="path-1" class="cls-3" fill-rule="evenodd"/><path d="M81.425 15.596S80.868 9.294 80.868 9.294C78.545 4.34 74.413 1.888 69.524.783L69.807 3.977s3.837 15.964 3.837 15.964C75.808 28.948 69.008 37.618 59.745 37.663L35.207 42.329s-1.689 7.135-1.689 7.135S89.501 49.194 89.501 49.194 81.425 15.596 81.425 15.596z" id="path-2" class="cls-4" fill-rule="evenodd"/><path d="M62.095 95.96c24.738.0 44.708 10.653 56.017 35.435L102.828 67.346S102.648 64.06 102.648 64.06C95.167 46.904 79.056 42.567 61.646 42.567c-17.41.0-33.03 4.52-41.002 21.493v3.286S3.269 138.285 3.269 138.285c8.264-24.59 31.452-42.325 58.826-42.325z" id="path-3" class="cls-5" fill-rule="evenodd"/><path d="M102.828 67.347S102.648 64.06 102.648 64.06c-3.116-7.146-7.744-12.043-13.325-15.355L97.688 83.758C98.696 87.983 94.159 91.454 90.413 89.255c-20.701-12.153-61.655-1.371-78.417 13.396L3.269 138.285c8.264-24.59 31.452-42.325 58.825-42.325 24.739.0 44.709 10.653 56.018 35.435L102.828 67.347z" id="path-4" class="cls-4" fill-rule="evenodd"/><path d="M124.192 154.772c0 34.295-27.801 62.099-62.097 62.099-34.295.0-62.097-27.804-62.097-62.099.0-34.296 27.802-62.099 62.097-62.099 34.296.0 62.097 27.803 62.097 62.099z" id="path-5" class="cls-7" fill-rule="evenodd"/><path d="M101.989 154.772c0 22.033-17.861 39.895-39.894 39.895-22.032.0-39.894-17.862-39.894-39.895.0-22.034 17.862-39.895 39.894-39.895 22.033.0 39.894 17.861 39.894 39.895z" id="path-6" class="cls-8" fill-rule="evenodd"/><path d="M25.487 161.344c0-22.033 17.861-39.893 39.894-39.893C79.701 121.451 92.224 129.02 99.26 140.353 93.475 125.454 79.037 114.877 62.095 114.877c-22.032.0-39.894 17.861-39.894 39.895C22.201 162.484 24.427 169.66 28.216 175.764 26.477 171.287 25.487 166.435 25.487 161.344z" id="path-7" class="cls-4" fill-rule="evenodd"/></g></svg>

<svg xmlns="http://www.w3.org/2000/svg" xmlns:xlink="http://www.w3.org/1999/xlink" preserveAspectRatio="xMidYMid" width="125" height="217" viewBox="0 0 125 217">
  <defs>
    <style>

      .cls-3 {
        fill: #ff3a2f;
      }

      .cls-4 {
        fill: #020403;
        opacity: 0.35;
      }

      .cls-5 {
        fill: #142a3b;
      }

      .cls-7 {
        fill: #2476ff;
      }

      .cls-8 {
        fill: #ededed;
      }
    </style>
  </defs>
  <g id="group-102svg">
    <path d="M89.501,49.195 C89.501,49.195 81.424,15.596 81.424,15.596 C81.424,15.596 80.868,9.294 80.868,9.294 C77.386,1.871 69.883,-0.008 61.774,-0.008 C53.668,-0.008 46.393,1.945 42.676,9.294 C42.676,9.294 41.595,15.324 41.595,15.324 C41.595,15.324 33.518,49.464 33.518,49.464 C33.518,49.464 89.501,49.195 89.501,49.195 Z" id="path-1" class="cls-3" fill-rule="evenodd"/>
    <path d="M81.425,15.596 C81.425,15.596 80.868,9.294 80.868,9.294 C78.545,4.340 74.413,1.888 69.524,0.783 C69.524,0.783 69.807,3.977 69.807,3.977 C69.807,3.977 73.644,19.941 73.644,19.941 C75.808,28.948 69.008,37.618 59.745,37.663 C59.745,37.663 35.207,42.329 35.207,42.329 C35.207,42.329 33.518,49.464 33.518,49.464 C33.518,49.464 89.501,49.194 89.501,49.194 C89.501,49.194 81.425,15.596 81.425,15.596 Z" id="path-2" class="cls-4" fill-rule="evenodd"/>
    <path d="M62.095,95.960 C86.833,95.960 106.803,106.613 118.112,131.395 C118.112,131.395 102.828,67.346 102.828,67.346 C102.828,67.346 102.648,64.060 102.648,64.060 C95.167,46.904 79.056,42.567 61.646,42.567 C44.236,42.567 28.616,47.087 20.644,64.060 C20.644,64.060 20.644,67.346 20.644,67.346 C20.644,67.346 3.269,138.285 3.269,138.285 C11.533,113.695 34.721,95.960 62.095,95.960 Z" id="path-3" class="cls-5" fill-rule="evenodd"/>
    <path d="M102.828,67.347 C102.828,67.347 102.648,64.060 102.648,64.060 C99.532,56.914 94.904,52.017 89.323,48.705 C89.323,48.705 97.688,83.758 97.688,83.758 C98.696,87.983 94.159,91.454 90.413,89.255 C69.712,77.102 28.758,87.884 11.996,102.651 C11.996,102.651 3.269,138.285 3.269,138.285 C11.533,113.695 34.721,95.960 62.094,95.960 C86.833,95.960 106.803,106.613 118.112,131.395 C118.112,131.395 102.828,67.347 102.828,67.347 Z" id="path-4" class="cls-4" fill-rule="evenodd"/>
    <path d="M124.192,154.772 C124.192,189.067 96.391,216.871 62.095,216.871 C27.800,216.871 -0.002,189.067 -0.002,154.772 C-0.002,120.476 27.800,92.673 62.095,92.673 C96.391,92.673 124.192,120.476 124.192,154.772 Z" id="path-5" class="cls-7" fill-rule="evenodd"/>
    <path d="M101.989,154.772 C101.989,176.805 84.128,194.667 62.095,194.667 C40.063,194.667 22.201,176.805 22.201,154.772 C22.201,132.738 40.063,114.877 62.095,114.877 C84.128,114.877 101.989,132.738 101.989,154.772 Z" id="path-6" class="cls-8" fill-rule="evenodd"/>
    <path d="M25.487,161.344 C25.487,139.311 43.348,121.451 65.381,121.451 C79.701,121.451 92.224,129.020 99.260,140.353 C93.475,125.454 79.037,114.877 62.095,114.877 C40.063,114.877 22.201,132.738 22.201,154.772 C22.201,162.484 24.427,169.660 28.216,175.764 C26.477,171.287 25.487,166.435 25.487,161.344 Z" id="path-7" class="cls-4" fill-rule="evenodd"/>
  </g>
</svg>
